content/podcast/s03e07-brave/logo.svg

<?xml version="1.0" encoding="UTF-8" standalone="no"?>
<svg
   id="Layer_1"
   viewBox="0 0 112.4 131.85761"
   width="654.24915"
   height="767.75317"
   version="1.1"
   sodipodi:docname="logo.svg"
   inkscape:version="1.4 (e7c3feb1, 2024-10-09)"
   xmlns:inkscape="http://www.inkscape.org/namespaces/inkscape"
   xmlns:sodipodi="http://sodipodi.sourceforge.net/DTD/sodipodi-0.dtd"
   xmlns="http://www.w3.org/2000/svg"
   xmlns:svg="http://www.w3.org/2000/svg"
   xmlns:rdf="http://www.w3.org/1999/02/22-rdf-syntax-ns#"
   xmlns:cc="http://creativecommons.org/ns#"
   xmlns:dc="http://purl.org/dc/elements/1.1/">
  <defs
     id="defs1" />
  <sodipodi:namedview
     id="namedview1"
     pagecolor="#ffffff"
     bordercolor="#666666"
     borderopacity="1.0"
     inkscape:showpageshadow="2"
     inkscape:pageopacity="0.0"
     inkscape:pagecheckerboard="0"
     inkscape:deskcolor="#d1d1d1"
     inkscape:zoom="0.14413639"
     inkscape:cx="1248.8171"
     inkscape:cy="381.58302"
     inkscape:window-width="1920"
     inkscape:window-height="1027"
     inkscape:window-x="0"
     inkscape:window-y="25"
     inkscape:window-maximized="0"
     inkscape:current-layer="Layer_1" />
  <style
     id="style1">.st0{fill:#fff}</style>
  <title
     id="title1">logotype-full-color</title>
  <path
     id="Head"
     d="M 36.000152 -0.021190755 L 24.399961 13.078894 C 24.399961 13.078894 14.300003 10.278754 9.5000029 15.078754 C 4.7000029 19.878754 0.79994373 24.078792 0.79994373 24.078792 L 3.9000612 31.678928 L 0 42.878812 C 0 42.878812 11.600099 86.678706 12.900099 92.078706 C 15.600099 102.57871 17.399919 106.67864 24.999919 112.07864 C 32.599919 117.47864 46.299937 126.67886 48.599937 128.07886 C 50.799937 129.47886 53.700073 131.87893 56.200073 131.87893 C 58.700073 131.87893 61.499874 129.47886 63.799874 128.07886 C 65.999874 126.67886 79.799892 117.37864 87.399892 112.07864 C 94.999892 106.77864 96.800048 102.67871 99.500048 92.078706 C 100.90005 86.678706 112.40015 42.878812 112.40015 42.878812 L 108.40009 31.578935 L 111.49987 23.978799 C 111.49987 23.978799 107.60015 19.778761 102.80015 14.978761 C 98.000151 10.178761 87.899857 12.978901 87.899857 12.978901 L 76.399995 -0.021190755 L 36.000152 -0.021190755 z M 55.900095 20.178731 C 55.900095 20.178731 58.100036 20.178653 61.500036 21.278653 C 64.900036 22.378653 68.500095 23.778813 70.200095 23.778813 C 71.900095 23.778813 84.700082 21.378646 84.700082 21.378646 C 84.700082 21.378646 99.500048 39.27879 99.500048 43.17879 C 99.500048 47.07879 97.599979 47.978648 95.699979 49.978648 C 93.799979 51.978648 85.600089 60.678824 84.600089 61.778824 C 83.500089 62.878824 81.399894 64.578745 82.599894 67.678745 C 83.899894 70.678745 85.800152 74.578649 83.700152 78.578649 C 81.600152 82.478649 78.000044 85.178891 75.700044 84.678891 C 73.400044 84.278891 67.900062 81.378879 65.900062 80.078879 C 63.900062 78.778879 57.599975 73.578806 57.599975 71.578806 C 57.599975 69.578806 64.200097 65.978921 65.400097 65.178921 C 66.600097 64.378921 72.099955 61.178951 72.199955 59.978951 C 72.299955 58.778951 72.300067 58.378946 70.600067 55.278946 C 69.000067 52.178946 66.00002 48.078636 66.50002 45.378636 C 67.00002 42.678636 71.700086 41.27868 75.100086 39.97868 C 78.500086 38.67868 85.000005 36.278633 85.800005 35.878633 C 86.600005 35.478633 86.400138 35.178703 83.900138 34.878703 C 81.400138 34.678703 74.500018 33.678724 71.300018 34.578724 C 68.100018 35.478724 62.79998 36.778856 62.29998 37.478856 C 61.89998 38.178856 61.500008 38.178966 61.900008 40.678966 C 62.300008 43.078966 64.700133 54.878826 64.900133 56.978826 C 65.100133 59.078826 65.59991 60.478881 63.29991 60.978881 C 61.09991 61.478881 57.300087 62.378782 56.000087 62.378782 C 54.700087 62.378782 50.89993 61.478881 48.69993 60.978881 C 46.49993 60.478881 46.900042 59.078826 47.100042 56.978826 C 47.300042 54.878826 49.600167 43.178966 50.100167 40.678966 C 50.500167 38.278966 50.19986 38.178856 49.69986 37.478856 C 49.29986 36.778856 43.900157 35.478724 40.700157 34.578724 C 37.500157 33.678724 30.600037 34.578703 28.100037 34.878703 C 25.600037 35.078703 25.399835 35.478633 26.199835 35.878633 C 26.999835 36.278633 33.500089 38.67868 36.900089 39.97868 C 40.300089 41.27868 45.000155 42.678636 45.500155 45.378636 C 46.000155 48.078636 43.100108 52.178946 41.400108 55.278946 C 39.800108 58.378946 39.699885 58.678951 39.799885 59.978951 C 39.899885 61.178951 45.400078 64.378921 46.600078 65.178921 C 47.800078 65.978921 54.399864 69.578806 54.399864 71.578806 C 54.399864 73.578806 48.100113 78.778879 46.100113 80.078879 C 44.100113 81.378879 38.700131 84.178891 36.300131 84.678891 C 34.000131 85.078891 30.400023 82.478649 28.300023 78.578649 C 26.200023 74.678649 28.099945 70.778745 29.399945 67.678745 C 30.699945 64.678745 28.500086 62.978824 27.400086 61.778824 C 26.300086 60.678824 18.19986 51.978648 16.29986 49.978648 C 14.39986 47.978648 12.60012 46.97879 12.60012 43.17879 C 12.60012 39.37879 27.400086 21.378646 27.400086 21.378646 C 27.400086 21.378646 39.900094 23.778813 41.600094 23.778813 C 43.300094 23.778813 46.900153 22.378653 50.300153 21.278653 C 53.700153 20.178653 55.900095 20.178731 55.900095 20.178731 z M 56.200073 81.978746 C 57.000073 81.978746 61.900062 83.678814 65.900062 85.778814 C 69.800062 87.878814 72.699856 89.378861 73.599856 89.878861 C 74.499856 90.478861 73.999891 91.578706 73.099891 92.078706 C 72.299891 92.678706 61.000142 101.37865 60.000142 102.37865 C 58.900142 103.37865 57.300073 104.87881 56.200073 104.87881 C 55.100073 104.87881 53.500005 103.27865 52.400005 102.37865 C 51.300005 101.37865 40.09992 92.678706 39.29992 92.078706 C 38.49992 91.478706 37.899955 90.378861 38.799955 89.878861 C 39.699955 89.278861 42.600085 87.878814 46.500085 85.778814 C 50.500085 83.678814 55.400073 81.978746 56.200073 81.978746 z " />
  <path
     id="path-3_1_"
     d="m 87.9,13.0788 -11.5,-13.1 H 36 l -11.6,13.1 c 0,0 -10.1,-2.8 -14.9,2 0,0 13.5,-1.2 18.1,6.3 0,0 12.5,2.4 14.2,2.4 1.7,0 5.3,-1.4 8.7,-2.5 3.4,-1.1 5.6,-1.1 5.6,-1.1 0,0 2.2,0 5.6,1.1 3.4,1.1 7,2.5 8.7,2.5 1.7,0 14.2,-2.4 14.2,-2.4 4.6,-7.5 18.1,-6.3 18.1,-6.3 -4.7,-4.8 -14.8,-2 -14.8,-2" />
  <metadata
     id="metadata1">
    <rdf:RDF>
      <cc:Work
         rdf:about="">
        <dc:title>logotype-full-color</dc:title>
      </cc:Work>
    </rdf:RDF>
  </metadata>
</svg>

<svg xmlns="http://www.w3.org/2000/svg" width="654.249" height="767.753" viewBox="0 0 112.4 131.858"><title>logotype-full-color</title><path d="m36-.021-11.6 13.1s-10.1-2.8-14.9 2-8.7 9-8.7 9l3.1 7.6-3.9 11.2s11.6 43.8 12.9 49.2c2.7 10.5 4.5 14.6 12.1 20s21.3 14.6 23.6 16c2.2 1.4 5.1 3.8 7.6 3.8s5.3-2.4 7.6-3.8c2.2-1.4 16-10.7 23.6-16s9.4-9.4 12.1-20c1.4-5.4 12.9-49.2 12.9-49.2l-4-11.3 3.1-7.6s-3.9-4.2-8.7-9-14.9-2-14.9-2l-11.5-13zm19.9 20.2s2.2 0 5.6 1.1 7 2.5 8.7 2.5 14.5-2.4 14.5-2.4 14.8 17.9 14.8 21.8-1.9 4.8-3.8 6.8-10.1 10.7-11.1 11.8c-1.1 1.1-3.2 2.8-2 5.9 1.3 3 3.2 6.9 1.1 10.9-2.1 3.9-5.7 6.6-8 6.1-2.3-.4-7.8-3.3-9.8-4.6s-8.3-6.5-8.3-8.5 6.6-5.6 7.8-6.4 6.7-4 6.8-5.2.1-1.6-1.6-4.7c-1.6-3.1-4.6-7.2-4.1-9.9s5.2-4.1 8.6-5.4 9.9-3.7 10.7-4.1.6-.7-1.9-1c-2.5-.2-9.4-1.2-12.6-.3s-8.5 2.2-9 2.9c-.4.7-.8.7-.4 3.2.4 2.4 2.8 14.2 3 16.3s.7 3.5-1.6 4c-2.2.5-6 1.4-7.3 1.4s-5.1-.9-7.3-1.4-1.8-1.9-1.6-4 2.5-13.8 3-16.3c.4-2.4.1-2.5-.4-3.2-.4-.7-5.8-2-9-2.9s-10.1 0-12.6.3c-2.5.2-2.7.6-1.9 1s7.3 2.8 10.7 4.1 8.1 2.7 8.6 5.4-2.4 6.8-4.1 9.9c-1.6 3.1-1.7 3.4-1.6 4.7.1 1.2 5.6 4.4 6.8 5.2s7.8 4.4 7.8 6.4-6.3 7.2-8.3 8.5-7.4 4.1-9.8 4.6c-2.3.4-5.9-2.2-8-6.1s-.2-7.8 1.1-10.9c1.3-3-.9-4.7-2-5.9-1.1-1.1-9.2-9.8-11.1-11.8s-3.7-3-3.7-6.8 14.8-21.8 14.8-21.8 12.5 2.4 14.2 2.4 5.3-1.4 8.7-2.5 5.6-1.1 5.6-1.1m.3 61.8c.8 0 5.7 1.7 9.7 3.8 3.9 2.1 6.8 3.6 7.7 4.1.9.6.4 1.7-.5 2.2-.8.6-12.1 9.3-13.1 10.3-1.1 1-2.7 2.5-3.8 2.5s-2.7-1.6-3.8-2.5c-1.1-1-12.3-9.7-13.1-10.3s-1.4-1.7-.5-2.2c.9-.6 3.8-2 7.7-4.1 4-2.1 8.9-3.8 9.7-3.8"/><path d="M87.9 13.079 76.4-.021H36l-11.6 13.1s-10.1-2.8-14.9 2c0 0 13.5-1.2 18.1 6.3 0 0 12.5 2.4 14.2 2.4s5.3-1.4 8.7-2.5 5.6-1.1 5.6-1.1 2.2 0 5.6 1.1 7 2.5 8.7 2.5 14.2-2.4 14.2-2.4c4.6-7.5 18.1-6.3 18.1-6.3-4.7-4.8-14.8-2-14.8-2"/></svg>
